X: 36891
T: Shoe The Donkey
R: mazurka
M: 3/4
K: Gmajor
DG|:"G"B2 B2 DG|B2 B2 DG|B2 c2 B2|"D"A4 DF|
A2 A2 DF|A2 A2 DF|A2 B2 A2|1 "G"G4 DG:|2 "G"G4 Bc||
|:d2 g2 f2|"C"c4 AB|c2 e2 d2|"G"B4 Bc|B2 A2 B2|
"D"c4 Bc|1 e2 d2 c2|"G"B4 Bc:|2 e2 d2 F2|"G"G4||

